packages/icons/raw/imported/FilesSticker.svg

<svg width="32" height="32" viewBox="0 0 32 32" fill="none" xmlns="http://www.w3.org/2000/svg">
<path d="M9.42306 25.5L9.42306 26L9.42306 25.5ZM6.49998 22.5769L6.99998 22.5769L6.49998 22.5769ZM6.49998 9.42308L5.99998 9.42308L6.49998 9.42308ZM25.5 9.42309L25 9.42308L25.5 9.42309ZM19.6539 19.6538L19.6539 19.1538C19.3777 19.1538 19.1539 19.3777 19.1539 19.6538L19.6539 19.6538ZM19.6539 25.5L19.6539 26C19.93 26 20.1539 25.7761 20.1539 25.5L19.6539 25.5ZM24.9832 20.9013L25.3368 21.2549L24.9832 20.9013ZM24.6297 20.5478L20.5478 24.6297L21.2549 25.3368L25.3368 21.2549L24.6297 20.5478ZM22.5769 6L9.42305 6L9.42305 7L22.5769 7L22.5769 6ZM6.99998 22.5769L6.99998 9.42308L5.99998 9.42308L5.99998 22.5769L6.99998 22.5769ZM22.5769 7C23.9152 7 25 8.08485 25 9.42308L26 9.42309C26 7.53257 24.4674 6 22.5769 6L22.5769 7ZM9.42305 6C7.53254 6 5.99998 7.53256 5.99998 9.42308L6.99998 9.42308C6.99998 8.08485 8.08482 7 9.42305 7L9.42305 6ZM9.42306 25C8.08483 25 6.99998 23.9151 6.99998 22.5769L5.99998 22.5769C5.99998 24.4674 7.53254 26 9.42306 26L9.42306 25ZM19.6539 25L9.42306 25L9.42306 26L19.6539 26L19.6539 25ZM26 19.6538L26 9.42309L25 9.42308L25 19.6538L26 19.6538ZM20.1539 25.5L20.1539 19.6538L19.1539 19.6538L19.1539 25.5L20.1539 25.5ZM19.6539 20.1538L25.5 20.1538L25.5 19.1538L19.6539 19.1538L19.6539 20.1538ZM20.5478 24.6297C20.3107 24.8668 19.9891 25 19.6539 25L19.6539 26C20.2543 26 20.8302 25.7615 21.2549 25.3368L20.5478 24.6297ZM25.3368 21.2549C25.7614 20.8303 26 20.2544 26 19.6538L25 19.6538C25 19.9891 24.8668 20.3107 24.6297 20.5478L25.3368 21.2549Z" fill="black"/>
</svg>

<svg width="32" height="32" fill="none" xmlns="http://www.w3.org/2000/svg"><path d="M9.423 25.5v.5-.5ZM6.5 22.577H7h-.5Zm0-13.154H6h.5Zm19 0H25h.5Zm-5.846 10.23v-.5a.5.5 0 0 0-.5.5h.5Zm0 5.847v.5a.5.5 0 0 0 .5-.5h-.5Zm5.33-4.599.353.354-.354-.354Zm-.354-.353-4.082 4.082.707.707 4.082-4.082-.707-.707ZM22.577 6H9.423v1h13.154V6ZM7 22.577V9.423H6v13.154h1ZM22.577 7A2.423 2.423 0 0 1 25 9.423h1A3.423 3.423 0 0 0 22.577 6v1ZM9.423 6A3.423 3.423 0 0 0 6 9.423h1A2.423 2.423 0 0 1 9.423 7V6Zm0 19A2.423 2.423 0 0 1 7 22.577H6A3.423 3.423 0 0 0 9.423 26v-1Zm10.23 0H9.424v1h10.23v-1ZM26 19.654V9.424h-1v10.23h1ZM20.154 25.5v-5.846h-1V25.5h1Zm-.5-5.346H25.5v-1h-5.846v1Zm.894 4.476c-.237.237-.559.37-.894.37v1c.6 0 1.176-.238 1.6-.663l-.706-.707Zm4.789-3.375c.424-.425.663-1 .663-1.601h-1c0 .335-.133.657-.37.894l.707.707Z" fill="#000"/></svg>
